static/assets/images/tokens/eusd.svg

<svg width="256" height="256" viewBox="0 0 256 256" fill="none" xmlns="http://www.w3.org/2000/svg">
<path d="M256 128C256 57.3075 198.692 0 128 0C57.3075 0 0 57.3075 0 128C0 198.692 57.3075 256 128 256C198.692 256 256 198.692 256 128Z" fill="white"/>
<path fill-rule="evenodd" clip-rule="evenodd" d="M222.5 128C222.5 180.192 180.192 222.5 128 222.5C75.808 222.5 33.5 180.192 33.5 128C33.5 75.808 75.808 33.5 128 33.5C180.192 33.5 222.5 75.808 222.5 128ZM240 128C240 189.856 189.856 240 128 240C66.144 240 16 189.856 16 128C16 66.144 66.144 16 128 16C189.856 16 240 66.144 240 128ZM136.748 49.248H119.252V62.144C109.887 63.712 101.217 68.0798 94.384 74.672C88.5215 80.3267 84.215 87.3966 81.88 95.2C79.5402 103.008 79.2441 111.285 81.02 119.24C82.792 127.192 86.5817 134.554 92.024 140.616C96.7634 145.893 102.633 150.032 109.196 152.724C109.994 156.006 111.826 158.944 114.421 161.105C117.017 163.267 120.239 164.536 123.611 164.726C126.983 164.917 130.327 164.018 133.149 162.163C135.971 160.307 138.122 157.594 139.284 154.422C140.447 151.251 140.559 147.79 139.604 144.551C138.649 141.311 136.677 138.464 133.981 136.43C131.284 134.397 128.005 133.284 124.628 133.256C121.251 133.228 117.954 134.287 115.224 136.276C111.342 134.579 107.869 132.069 105.04 128.916C101.608 125.09 99.2177 120.445 98.1 115.428C96.9773 110.398 97.1646 105.165 98.644 100.228C100.116 95.3052 102.831 90.8445 106.528 87.276C110.205 83.7286 114.739 81.1955 119.688 79.924C124.623 78.6588 129.801 78.6988 134.716 80.04C139.645 81.3858 144.14 83.9864 147.764 87.588C151.408 91.2109 154.057 95.7115 155.456 100.656L172.296 95.884C170.076 88.0468 165.874 80.9136 160.096 75.172C153.688 68.8049 145.583 64.4169 136.748 62.532V49.248ZM126.252 125.376C122.955 125.376 119.725 124.446 116.935 122.691C114.144 120.936 111.905 118.429 110.477 115.457C109.049 112.486 108.489 109.171 108.862 105.896C109.235 102.62 110.526 99.5167 112.585 96.9426C114.645 94.3684 117.39 92.4285 120.504 91.3461C123.618 90.2637 126.974 90.0829 130.187 90.8246C133.399 91.5663 136.336 93.2003 138.661 95.5383C140.985 97.8764 142.601 100.823 143.324 104.04C147.797 105.877 151.967 108.377 155.696 111.456C161.979 116.633 166.801 123.362 169.684 130.976C172.548 138.576 173.34 146.772 171.972 154.764C170.592 162.771 167.123 170.271 161.916 176.508C156.675 182.784 149.915 187.615 142.28 190.54C139.908 191.452 137.472 192.176 135 192.708V206.748H117.5V193.288C109.622 192.14 102.146 189.075 95.728 184.364C89.1576 179.546 83.9549 173.099 80.632 165.66L96.62 158.548C98.7093 163.211 101.976 167.25 106.1 170.268C110.334 173.37 115.283 175.353 120.488 176.032C125.729 176.727 131.06 176.098 135.996 174.204C140.844 172.352 145.137 169.291 148.468 165.312C151.706 161.441 153.864 156.784 154.724 151.812C155.564 146.892 155.084 141.844 153.312 137.148C151.502 132.387 148.479 128.182 144.544 124.948C142.55 123.3 140.355 121.912 138.012 120.816C134.794 123.743 130.602 125.368 126.252 125.376Z" fill="black"/>
</svg>

<svg xmlns="http://www.w3.org/2000/svg" fill="none" viewBox="0 0 256 256"><path fill="#fff" d="M256 128C256 57.308 198.692 0 128 0S0 57.308 0 128s57.308 128 128 128 128-57.308 128-128"/><path fill="#000" fill-rule="evenodd" d="M222.5 128c0 52.192-42.308 94.5-94.5 94.5S33.5 180.192 33.5 128 75.808 33.5 128 33.5s94.5 42.308 94.5 94.5m17.5 0c0 61.856-50.144 112-112 112S16 189.856 16 128 66.144 16 128 16s112 50.144 112 112M136.748 49.248h-17.496v12.896a47 47 0 0 0-24.868 12.528A47.4 47.4 0 0 0 81.88 95.2a47.6 47.6 0 0 0-.86 24.04 47.45 47.45 0 0 0 11.004 21.376 47.1 47.1 0 0 0 17.172 12.108 15.748 15.748 0 1 0 6.028-16.448 29.6 29.6 0 0 1-10.184-7.36 29.96 29.96 0 0 1-6.94-13.488 30.1 30.1 0 0 1 .544-15.2 29.9 29.9 0 0 1 7.884-12.952 29.54 29.54 0 0 1 13.16-7.352 29.4 29.4 0 0 1 15.028.116 29.55 29.55 0 0 1 13.048 7.548 29.9 29.9 0 0 1 7.692 13.068l16.84-4.772a47.4 47.4 0 0 0-12.2-20.712 47.05 47.05 0 0 0-23.348-12.64zm-10.496 76.128a17.498 17.498 0 0 1-17.39-19.48 17.5 17.5 0 0 1 11.642-14.55 17.5 17.5 0 0 1 22.82 12.694 48.2 48.2 0 0 1 12.372 7.416 46.74 46.74 0 0 1 13.988 19.52 45.6 45.6 0 0 1 2.288 23.788 46.16 46.16 0 0 1-10.056 21.744 47.9 47.9 0 0 1-19.636 14.032 49 49 0 0 1-7.28 2.168v14.04h-17.5v-13.46a48.65 48.65 0 0 1-21.772-8.924 46.9 46.9 0 0 1-15.096-18.704l15.988-7.112a29.44 29.44 0 0 0 9.48 11.72 31.2 31.2 0 0 0 14.388 5.764 31.7 31.7 0 0 0 15.508-1.828 30.4 30.4 0 0 0 12.472-8.892 28.65 28.65 0 0 0 6.256-13.5c.84-4.92.36-9.968-1.412-14.664a29.24 29.24 0 0 0-8.768-12.2 30.6 30.6 0 0 0-6.532-4.132 17.52 17.52 0 0 1-11.76 4.56" clip-rule="evenodd"/></svg>
